X:1
T:The Musical Festival
T:The Musical Festival
T:an Amateur
C:an Amateur
L:1/8
Q:1/4=88
M:4/4
K:G
V:1 treble 
V:1
 (3(D/E/F/) | G>AB>A .G.B D2 | E<AA>B (c/B/)(A/^G/) .A z | G>AB>A G>E !fermata!D>e | %4
 d>G (d/c/B/A/) BGG :| (3(d/e/f/) | (g/f/g/a/) b>a g>edg | .e.gd>g f<aTa>f | %8
 (g/f/g/a/) b>a g>e dB/c/ | dG (d/c/B/A/) BG G (3(d/e/f/) | (g/f/g/a/) (b/a/g/f/) (g/f/g/e/) dg | %11
 .e.gd>g fa!fermata!a{^c'}d' | (=c'/b/a/g/ b/a/g/f/ g/f/e/d/) !fermata!g>d | %13
 (e/g/)(d/g/) (d/c/B/A/) BGG |] %14

